assets/shop-tab/Asset/hotel.svg

<svg width="30" height="24" viewBox="0 0 30 24" fill="none" xmlns="http://www.w3.org/2000/svg">
<path d="M1.22461 0C1.90103 0 2.44998 0.54824 2.4502 1.22461V11.3242C2.45046 11.6176 2.7038 11.848 2.99609 11.8223C10.7517 11.1379 15.8253 10.7905 22.3389 11.2012C25.6009 11.4068 27.2325 11.5106 28.3164 12.665C29.3362 13.7515 29.3959 15.3338 29.3994 18.374V18.375L29.4004 18.376V22.0498C29.4004 22.7264 28.8514 23.2754 28.1748 23.2754C27.4983 23.2753 26.9502 22.7263 26.9502 22.0498V20.0996C26.9502 19.8235 26.7263 19.5996 26.4502 19.5996H2.9502C2.67405 19.5996 2.4502 19.8235 2.4502 20.0996V22.0498C2.4502 22.7264 1.90116 23.2754 1.22461 23.2754C0.54824 23.2752 0 22.7262 0 22.0498V1.22461C0.000210701 0.54837 0.54837 0.000211033 1.22461 0ZM4.47461 3.88965C5.22145 3.61606 5.77449 3.59759 6.52246 3.87207C6.76463 3.96095 6.88602 4.00499 6.97363 4.11621C7.06125 4.22749 7.07881 4.37726 7.11328 4.67578C7.26104 5.95539 7.54092 7.73807 7.15332 10.0898C7.11063 10.3489 7.08904 10.4787 7 10.584C6.91094 10.6892 6.78963 10.7312 6.54688 10.8145C5.80549 11.0687 5.26989 11.1155 4.46387 10.8271C4.2342 10.745 4.11912 10.7042 4.03125 10.5967C3.94339 10.4892 3.9239 10.357 3.88574 10.0928C3.60437 8.14411 3.60263 6.79425 3.89062 4.64258C3.92677 4.37252 3.94522 4.23743 4.03223 4.12891C4.1194 4.0203 4.23783 3.97639 4.47461 3.88965Z" fill="white"/>
</svg>

<svg xmlns="http://www.w3.org/2000/svg" width="30" height="24" fill="none" viewBox="0 0 30 24"><path fill="#fff" d="M1.225 0C1.9 0 2.45.548 2.45 1.225v10.1c0 .293.254.523.546.497 7.756-.684 12.83-1.031 19.343-.62 3.262.205 4.894.309 5.977 1.463 1.02 1.087 1.08 2.669 1.083 5.709v.001l.001.001v3.674a1.226 1.226 0 0 1-2.45 0V20.1a.5.5 0 0 0-.5-.5H2.95a.5.5 0 0 0-.5.5v1.95a1.226 1.226 0 0 1-2.45 0V1.225C0 .548.548 0 1.225 0m3.25 3.89c.746-.274 1.3-.292 2.047-.018.243.089.364.133.452.244.087.111.105.261.14.56.147 1.28.427 3.062.04 5.414-.043.259-.065.389-.154.494-.09.105-.21.147-.453.23-.742.255-1.277.302-2.083.013-.23-.082-.345-.123-.433-.23s-.107-.24-.145-.504c-.282-1.949-.283-3.299.005-5.45.036-.27.054-.406.141-.514.087-.109.206-.153.443-.24"/></svg>
